packages/ui/public/icons/message-dots-square.svg

<svg width="24" height="24" viewBox="0 0 24 24" fill="none" xmlns="http://www.w3.org/2000/svg">
<path opacity="0.4" d="M3 7.8C3 6.11984 3 5.27976 3.32698 4.63803C3.6146 4.07354 4.07354 3.6146 4.63803 3.32698C5.27976 3 6.11984 3 7.8 3H16.2C17.8802 3 18.7202 3 19.362 3.32698C19.9265 3.6146 20.3854 4.07354 20.673 4.63803C21 5.27976 21 6.11984 21 7.8V13.2C21 14.8802 21 15.7202 20.673 16.362C20.3854 16.9265 19.9265 17.3854 19.362 17.673C18.7202 18 17.8802 18 16.2 18H13.6837C13.0597 18 12.7477 18 12.4492 18.0613C12.1844 18.1156 11.9282 18.2055 11.6875 18.3285C11.4162 18.4671 11.1725 18.662 10.6852 19.0518L8.29976 20.9602C7.88367 21.2931 7.67563 21.4595 7.50054 21.4597C7.34827 21.4599 7.20422 21.3906 7.10923 21.2716C7 21.1348 7 20.8684 7 20.3355V18C6.07003 18 5.60504 18 5.22354 17.8978C4.18827 17.6204 3.37962 16.8117 3.10222 15.7765C3 15.395 3 14.93 3 14V7.8Z" stroke="#A09FA6" stroke-width="2" stroke-linecap="round" stroke-linejoin="round"/>
<path d="M7.5 10.5H7.51M12 10.5H12.01M16.5 10.5H16.51M8 10.5C8 10.7761 7.77614 11 7.5 11C7.22386 11 7 10.7761 7 10.5C7 10.2239 7.22386 10 7.5 10C7.77614 10 8 10.2239 8 10.5ZM12.5 10.5C12.5 10.7761 12.2761 11 12 11C11.7239 11 11.5 10.7761 11.5 10.5C11.5 10.2239 11.7239 10 12 10C12.2761 10 12.5 10.2239 12.5 10.5ZM17 10.5C17 10.7761 16.7761 11 16.5 11C16.2239 11 16 10.7761 16 10.5C16 10.2239 16.2239 10 16.5 10C16.7761 10 17 10.2239 17 10.5Z" stroke="#A09FA6" stroke-width="2" stroke-linecap="round" stroke-linejoin="round"/>
</svg>

<svg width="24" height="24" fill="none" xmlns="http://www.w3.org/2000/svg"><path opacity=".4" d="M3 7.8c0-1.68 0-2.52.327-3.162a3 3 0 0 1 1.311-1.311C5.28 3 6.12 3 7.8 3h8.4c1.68 0 2.52 0 3.162.327a3 3 0 0 1 1.311 1.311C21 5.28 21 6.12 21 7.8v5.4c0 1.68 0 2.52-.327 3.162a3 3 0 0 1-1.311 1.311C18.72 18 17.88 18 16.2 18h-2.516c-.624 0-.936 0-1.235.061a2.997 2.997 0 0 0-.761.267c-.272.14-.516.334-1.003.724L8.3 20.96c-.416.333-.624.5-.8.5a.5.5 0 0 1-.39-.188C7 21.135 7 20.868 7 20.336V18c-.93 0-1.395 0-1.776-.102a3 3 0 0 1-2.122-2.121C3 15.395 3 14.93 3 14V7.8Z" stroke="#A09FA6" stroke-width="2" stroke-linecap="round" stroke-linejoin="round"/><path d="M7.5 10.5h.01m4.49 0h.01m4.49 0h.01M8 10.5a.5.5 0 1 1-1 0 .5.5 0 0 1 1 0Zm4.5 0a.5.5 0 1 1-1 0 .5.5 0 0 1 1 0Zm4.5 0a.5.5 0 1 1-1 0 .5.5 0 0 1 1 0Z" stroke="#A09FA6" stroke-width="2" stroke-linecap="round" stroke-linejoin="round"/></svg>
